X:1
T:San Juan Islands, 10.8.10.8 D
T:San Juan Islands, 10.8.10.8 D
T:John Raymond Neff, 1907
T:Public Domain Courtesy of the Cyber Hymnal™
C:John Raymond Neff, 1907
Z:Public Domain
Z:Courtesy of the Cyber Hymnal™
%%score ( 1 2 ) ( 3 4 )
L:1/8
Q:1/4=120
M:3/4
K:E
V:1 treble 
V:2 treble 
V:3 bass 
V:4 bass 
V:1
 [EB]2 [EA]2 [EG]2 | [EG]3 [EF] E2 | E2 [EF]2 [EG]2 | [EA]4 ([EG][FA]) | %4
 [GB]3 [GB] [GB]2 [EB]3 [DA] [EG]2 | [DF]6 | [EB]2 [EA]2 [EG]2 | [EG]3 [EF] E2 | E2 [EF]2 [EG]2 | %9
 [EA]4 [Ac]2 | [GB]3 [FA] [EG]2 | [FA]3 [EG] [DF]2 | E6 | [Ge]2 [Bd]2 [Ac]2 | [GB]3 [^^F^A] [GB]2 | %15
 [Ec]2 [EB]2 [DA]2 | [EG]4 [GB]2 | [GB]3 [FA] [EG]2 | [EG]3 [EF] E2 | [DB]6 | [Ec]2 [Ec]2 [Ec]2 | %21
 [Ee]3 [Ad] [Ac]2 | [GB]2 [^^F^A]2 [GB]2 | [EG]4 [GB]2 | [GB]3 [FA] [EG]2 | [FA]3 [EG] [DF]2 | %26
 E6 |] %27
V:2
 x6 | x4 E2 | E2 x4 | x6 | x12 | x6 | x6 | x4 E2 | E2 x4 | x6 | x6 | x6 | E6 | x6 | x6 | x6 | x6 | %17
 x6 | x4 E2 | x6 | x6 | x6 | x6 | x6 | x6 | x6 | E6 |] %27
V:3
 [E,G,]2 [E,C]2 [E,B,]2 | [E,B,]3 [E,A,] [E,G,]2 | [E,G,]2 [E,A,]2 [E,B,]2 | [A,,C]4 [E,B,]2 | %4
 [E,E]3 [E,E] [E,E]2 [G,B,]3 [F,B,] [E,B,]2 | [B,,B,]6 | [E,G,]2 [E,C]2 [E,B,]2 | %7
 [E,B,]3 [E,A,] [E,G,]2 | [=D,G,]2 [C,A,]2 [B,,B,]2 | [A,,C]4 [A,,E]2 | [E,E]3 [E,B,] [E,B,]2 | %11
 [B,,B,]3 [B,,B,] [B,,A,]2 | [E,G,]6 | [E,B,]2 [E,B,]2 [E,E]2 | [E,E]3 [E,E] [E,E]2 | %15
 [A,E]2 [G,E]2 [F,B,]2 | [E,B,]4 [E,E]2 | [E,E]3 [E,B,] [E,B,]2 | [E,B,]3 [E,A,] [E,G,]2 | %19
 [B,,F,]6 | [A,,A,]2 [A,,A,]2 A,2 | [A,C]3 [A,D] [A,E]2 | [E,E]2 [E,E]2 [E,E]2 | [E,B,]4 [E,E]2 | %24
 [E,E]3 [E,B,] [E,B,]2 | [B,,B,]3 [B,,B,] [B,,A,]2 | [E,G,]6 |] %27
V:4
 x6 | x6 | x6 | x6 | x12 | x6 | x6 | x6 | x6 | x6 | x6 | x6 | x6 | x6 | x6 | x6 | x6 | x6 | x6 | %19
 x6 | x4 A,2 | x6 | x6 | x6 | x6 | x6 | x6 |] %27

